X: 18420
T: Hunter's Purse, The
R: reel
M: 4/4
K: Adorian
ed|:e2AB AGEF|G2AF GED2|c2cd e2 ed|B/c/d ef gedg|
eAAG AGEF|GBAF GED2|c2cd e/f/g ed|1 c/B/A B/A/G A2 ed:|2 c/B/A B/A/G A2 Bd||
|:e2ab agef|g/a/b af gedB|cBcd e2 ed|B/c/d ef gedg|
e2 ab aged|g2 af gedB|cBcd e/f/g ed|1 c/B/A B/A/G A2 Bd:|2 c/B/A B/A/G A2 ed||

